svg/u1f62b.svg

<svg viewBox="0 0 128 128" xmlns="http://www.w3.org/2000/svg">
  <g id="gold">
    <radialGradient id="face_1_" cx="63.6" cy="1992.9" gradientTransform="matrix(1 0 0 1 0 -1930)" gradientUnits="userSpaceOnUse" r="56.9597">
      <stop offset="0.5" stop-color="#FDE030"/>
      <stop offset="0.92" stop-color="#F7C02B"/>
      <stop offset="1" stop-color="#F4A223"/>
    </radialGradient>
    <path id="face" d="M63.6,118.8c-27.9,0-58-17.5-58-55.9S35.7,7,63.6,7c15.5,0,29.8,5.1,40.4,14.4 c11.5,10.2,17.6,24.6,17.6,41.5s-6.1,31.2-17.6,41.4C93.4,113.6,79,118.8,63.6,118.8z" fill="url(#face_1_)"/>
    <path d="M111.49,29.67c5.33,8.6,8.11,18.84,8.11,30.23c0,16.9-6.1,31.2-17.6,41.4 c-10.6,9.3-25,14.5-40.4,14.5c-18.06,0-37-7.35-48.18-22.94c10.76,17.66,31,25.94,50.18,25.94c15.4,0,29.8-5.2,40.4-14.5 c11.5-10.2,17.6-24.5,17.6-41.4C121.6,50.16,118.13,38.84,111.49,29.67z" fill="#EB8F00"/>
  </g>
  <g id="facial_expressions">
    <g id="tired-face">
      <g id="mouth">
        <path d="M89.74,79.1c-8.35-2.5-17.03-3.71-25.74-3.6c-8.83-0.08-17.62,1.18-26.07,3.75 C35,84.02,33.44,89.5,33.4,95.1c-0.05,3.52,2.76,6.41,6.28,6.46c1.01,0.01,2.02-0.21,2.92-0.66c6.71-3.14,14-4.84,21.4-5 c7.41,0.14,14.7,1.85,21.4,5c3.15,1.56,6.97,0.28,8.54-2.88c0.45-0.91,0.68-1.91,0.66-2.92C94.54,89.41,92.85,83.86,89.74,79.1z" fill="#422B0D"/>
        <path d="M89.74,79.1C83.7,69.6,73.09,67.2,64,67.2c-9.88,0-20.3,2.47-26.07,12 c8.45-2.55,17.24-3.8,26.07-3.7C72.71,75.39,81.39,76.6,89.74,79.1z" fill="#FFFFFF"/>
      </g>
    </g>
    <g id="eyebrows">
      <path d="M33.73,30.91c-2.2,0.4-2.3,3.6,0.1,3.7c5.3,0.07,10.42-1.9,14.3-5.5c1.48-1.28,2.73-2.8,3.7-4.5 c0.58-0.83,0.38-1.97-0.45-2.55c-0.83-0.58-1.97-0.38-2.55,0.45l-0.1,0.1C44.81,26.99,39.52,29.92,33.73,30.91z" fill="#422B0D"/>
      <path d="M78.44,22.51c-0.58-0.83-1.72-1.03-2.55-0.45c-0.83,0.58-1.03,1.72-0.45,2.55 c0.97,1.7,2.22,3.22,3.7,4.5c3.9,3.57,9.01,5.54,14.3,5.5c2.5-0.1,2.3-3.3,0.1-3.7C87.68,29.95,82.35,26.98,78.44,22.51 L78.44,22.51" fill="#422B0D"/>
    </g>
    <path d="M34.47,41.22c0,0,13.05,1.36,22.07,10.86c0.99,1.01,0.97,2.63-0.05,3.62 c-0.41,0.4-0.93,0.65-1.49,0.71c-3.49,0.32-8.71,2.11-16,7.64c0,0-3.94,3.75-7.06,0c-2.46-3,2-6.4,2-6.4s5.25-4.76,11.49-5.09 l-11.58-2.62c-1.18-0.16-2.29-0.69-3.15-1.52c-1.14-0.96-1.54-2.53-1-3.92C30.43,42.5,32.34,41.19,34.47,41.22z" fill="#422B0D"/>
    <path d="M94,41.22c0,0-13,1.36-22.06,10.86c-0.99,1.01-0.96,2.63,0.05,3.62c0.41,0.4,0.95,0.65,1.52,0.71 c3.49,0.32,8.7,2.11,16,7.64c0,0,3.93,3.75,7.06,0c2.46-3-2-6.4-2-6.4s-5.25-4.76-11.49-5.09l11.46-2.62 c1.19-0.16,2.29-0.69,3.16-1.52c1.13-0.96,1.54-2.53,1-3.92C97.98,42.53,96.1,41.22,94,41.22z" fill="#422B0D"/>
    <path d="M63.94,65.7c3.52,0.03,7.03,0.47,10.46,1.3c3.48,0.83,6.77,2.3,9.71,4.34c2.9,2.11,5.29,4.85,7,8 c1.71,3.07,2.92,6.4,3.56,9.85c0.32,1.72,0.49,3.46,0.49,5.21c0.04,0.92-0.06,1.83-0.3,2.72c-0.27,0.9-0.72,1.73-1.31,2.45 c-1.2,1.42-2.93,2.3-4.79,2.43c-0.91,0.05-1.83-0.07-2.7-0.35c-0.87-0.32-1.59-0.71-2.38-1c-6.2-2.86-12.91-4.48-19.74-4.75 c6.86,0.01,13.66,1.37,20,4c0.8,0.31,1.6,0.7,2.34,0.94c0.77,0.21,1.57,0.28,2.36,0.21c1.58-0.16,3.02-0.95,4-2.2 c0.47-0.61,0.81-1.32,1-2.07c0.18-0.77,0.24-1.57,0.17-2.36c-0.07-1.68-0.29-3.36-0.65-5c-0.73-3.25-1.98-6.36-3.72-9.2 c-1.67-2.82-3.95-5.23-6.67-7.06c-2.75-1.76-5.8-3-9-3.64c-3.25-0.65-6.56-0.94-9.87-0.85L63.94,65.7z" fill="#EB8F00"/>
    <path d="M64.19,68.7c-3.31-0.09-6.62,0.2-9.86,0.85c-3.2,0.64-6.25,1.88-9,3.64c-2.72,1.83-5,4.24-6.67,7.06 c-1.73,2.84-2.99,5.95-3.72,9.2c-0.36,1.64-0.58,3.32-0.65,5c-0.07,0.79-0.01,1.59,0.17,2.36c0.2,0.75,0.54,1.45,1,2.07 c0.98,1.25,2.42,2.04,4,2.2c0.79,0.07,1.59,0,2.36-0.21c0.75-0.24,1.55-0.63,2.34-0.94c6.34-2.63,13.14-3.99,20-4 c-6.82,0.25-13.53,1.84-19.74,4.68c-0.78,0.34-1.51,0.73-2.38,1c-0.87,0.28-1.79,0.4-2.7,0.35c-1.87-0.13-3.6-1.01-4.8-2.44 c-0.6-0.72-1.05-1.55-1.32-2.45c-0.24-0.89-0.34-1.8-0.3-2.72c0.01-1.75,0.18-3.49,0.49-5.21c0.66-3.45,1.87-6.77,3.59-9.83 c1.71-3.15,4.1-5.89,7-8c2.95-2.03,6.25-3.49,9.73-4.31c3.43-0.83,6.94-1.27,10.46-1.3V68.7z" fill="#EB8F00"/>
  </g>
</svg>

<svg viewBox="0 0 128 128" xmlns="http://www.w3.org/2000/svg">
  <defs>
    <radialGradient id="face_1_" cx="63.6" cy="62.9" gradientUnits="userSpaceOnUse" r="56.9597">
      <stop offset="0.5" stop-color="#FDE030"/>
      <stop offset="0.92" stop-color="#F7C02B"/>
      <stop offset="1" stop-color="#F4A223"/>
    </radialGradient>
  </defs>
  <path id="face" d="M63.6,118.8 C35.7,118.8 5.6,101.3 5.6,62.9 C5.6,24.5 35.7,7 63.6,7 C79.1,7 93.4,12.1 104,21.4 C115.5,31.6 121.6,46 121.6,62.9 C121.6,79.8 115.5,94.1 104,104.3 C93.4,113.6 79,118.8 63.6,118.8 Z" fill="url(#face_1_)"/>
  <path d="M111.49,29.67 C116.82,38.27 119.6,48.51 119.6,59.9 C119.6,76.8 113.5,91.1 102,101.3 C91.4,110.6 77,115.8 61.6,115.8 C43.54,115.8 24.6,108.45 13.42,92.86 C24.18,110.52 44.42,118.8 63.6,118.8 C79,118.8 93.4,113.6 104,104.3 C115.5,94.1 121.6,79.8 121.6,62.9 C121.6,50.16 118.13,38.84 111.49,29.67 Z" fill="#EB8F00"/>
  <path d="M89.74,79.1 C81.39,76.6 72.71,75.39 64,75.5 C55.17,75.42 46.38,76.68 37.93,79.25 C35,84.02 33.44,89.5 33.4,95.1 C33.35,98.62 36.16,101.51 39.68,101.56 C40.69,101.57 41.7,101.35 42.6,100.9 C49.31,97.76 56.6,96.06 64,95.9 C71.41,96.04 78.7,97.75 85.4,100.9 C88.55,102.46 92.37,101.18 93.94,98.02 C94.39,97.11 94.62,96.11 94.6,95.1 C94.54,89.41 92.85,83.86 89.74,79.1 Z" fill="#422B0D"/>
  <path d="M89.74,79.1 C83.7,69.6 73.09,67.2 64,67.2 C54.12,67.2 43.7,69.67 37.93,79.2 C46.38,76.65 55.17,75.4 64,75.5 C72.71,75.39 81.39,76.6 89.74,79.1 Z" fill="#FFFFFF"/>
  <path d="M33.73,30.91 C31.53,31.31 31.43,34.51 33.83,34.61 C39.13,34.68 44.25,32.71 48.13,29.11 C49.61,27.83 50.86,26.31 51.83,24.61 C52.41,23.78 52.21,22.64 51.38,22.06 C50.55,21.48 49.41,21.68 48.83,22.51 L48.73,22.61 C44.81,26.99 39.52,29.92 33.73,30.91 Z" fill="#422B0D"/>
  <path d="M78.44,22.51 C77.86,21.68 76.72,21.48 75.89,22.06 C75.06,22.64 74.86,23.78 75.44,24.61 C76.41,26.31 77.66,27.83 79.14,29.11 C83.04,32.68 88.15,34.65 93.44,34.61 C95.94,34.51 95.74,31.31 93.54,30.91 C87.68,29.95 82.35,26.98 78.44,22.51 L78.44,22.51" fill="#422B0D"/>
  <path d="M34.47,41.22 C34.47,41.22 47.52,42.58 56.54,52.08 C57.53,53.09 57.51,54.71 56.49,55.7 C56.08,56.1 55.56,56.35 55,56.41 C51.51,56.73 46.29,58.52 39,64.05 C39,64.05 35.06,67.8 31.94,64.05 C29.48,61.05 33.94,57.65 33.94,57.65 C33.94,57.65 39.19,52.89 45.43,52.56 L33.85,49.94 C32.67,49.78 31.56,49.25 30.7,48.42 C29.56,47.46 29.16,45.89 29.7,44.5 C30.43,42.5 32.34,41.19 34.47,41.22 Z" fill="#422B0D"/>
  <path d="M94,41.22 C94,41.22 81,42.58 71.94,52.08 C70.95,53.09 70.98,54.71 71.99,55.7 C72.4,56.1 72.94,56.35 73.51,56.41 C77,56.73 82.21,58.52 89.51,64.05 C89.51,64.05 93.44,67.8 96.57,64.05 C99.03,61.05 94.57,57.65 94.57,57.65 C94.57,57.65 89.32,52.89 83.08,52.56 L94.54,49.94 C95.73,49.78 96.83,49.25 97.7,48.42 C98.83,47.46 99.24,45.89 98.7,44.5 C97.98,42.53 96.1,41.22 94,41.22 Z" fill="#422B0D"/>
  <path d="M63.94,65.7 C67.46,65.73 70.97,66.17 74.4,67 C77.88,67.83 81.17,69.3 84.11,71.34 C87.01,73.45 89.4,76.19 91.11,79.34 C92.82,82.41 94.03,85.74 94.67,89.19 C94.99,90.91 95.16,92.65 95.16,94.4 C95.2,95.32 95.1,96.23 94.86,97.12 C94.59,98.02 94.14,98.85 93.55,99.57 C92.35,100.99 90.62,101.87 88.76,102 C87.85,102.05 86.93,101.93 86.06,101.65 C85.19,101.33 84.47,100.94 83.68,100.65 C77.48,97.79 70.77,96.17 63.94,95.9 C70.8,95.91 77.6,97.27 83.94,99.9 C84.74,100.21 85.54,100.6 86.28,100.84 C87.05,101.05 87.85,101.12 88.64,101.05 C90.22,100.89 91.66,100.1 92.64,98.85 C93.11,98.24 93.45,97.53 93.64,96.78 C93.82,96.01 93.88,95.21 93.81,94.42 C93.74,92.74 93.52,91.06 93.16,89.42 C92.43,86.17 91.18,83.06 89.44,80.22 C87.77,77.4 85.49,74.99 82.77,73.16 C80.02,71.4 76.97,70.16 73.77,69.52 C70.52,68.87 67.21,68.58 63.9,68.67 L63.94,65.7 Z" fill="#EB8F00"/>
  <path d="M64.19,68.7 C60.88,68.61 57.57,68.9 54.33,69.55 C51.13,70.19 48.08,71.43 45.33,73.19 C42.61,75.02 40.33,77.43 38.66,80.25 C36.93,83.09 35.67,86.2 34.94,89.45 C34.58,91.09 34.36,92.77 34.29,94.45 C34.22,95.24 34.28,96.04 34.46,96.81 C34.66,97.56 35,98.26 35.46,98.88 C36.44,100.13 37.88,100.92 39.46,101.08 C40.25,101.15 41.05,101.08 41.82,100.87 C42.57,100.63 43.37,100.24 44.16,99.93 C50.5,97.3 57.3,95.94 64.16,95.93 C57.34,96.18 50.63,97.77 44.42,100.61 C43.64,100.95 42.91,101.34 42.04,101.61 C41.17,101.89 40.25,102.01 39.34,101.96 C37.47,101.83 35.74,100.95 34.54,99.52 C33.94,98.8 33.49,97.97 33.22,97.07 C32.98,96.18 32.88,95.27 32.92,94.35 C32.93,92.6 33.1,90.86 33.41,89.14 C34.07,85.69 35.28,82.37 37,79.31 C38.71,76.16 41.1,73.42 44,71.31 C46.95,69.28 50.25,67.82 53.73,67 C57.16,66.17 60.67,65.73 64.19,65.7 L64.19,68.7 Z" fill="#EB8F00"/>
</svg>
